X:1
T:O Care, thou wilt despatch me - Weelkes
T:#
%%score [ 1 { 2 | 3 } 4 5 ]
L:1/8
Q:1/4=120
M:2/2
K:F
V:1 treble nm="Soprano" snm="S"
V:2 treble nm="Alto I" snm="A"
V:3 treble 
V:4 treble-8 nm="Tenor" snm="T"
V:5 bass nm="Bass" snm="B"
V:1
"^O Care, thou wilt despatch me" z8 | z8 | z8 | z8 | z8 |!mf! d8 | _e8 | d8 | %8
w: |||||O|Care,|thou|
"^Thomas Weelkes\n(c.1576-1623)" c8- |[M:2/2] c4 (c4- | c4 B4) | A8 | G8- | G8 | G8 | z2 d2 e3 f | %16
w: wilt|* des\-||patch|me,|||If mu- sic|
 g2 _e2 d4 | d8 | z8 | z8 | z4 z2"^cresc." d2 | e3 f g2 e2 | d8 | =B4!f! d4- | d4 _e4- | e4 d4 | %26
w: do not match|thee.|||Fa|la la la la|la|la. So|* dead\-|* ly|
 d4 c4 | d8 | c4 c4 | =B4 c4- | c4 =B4 | c8- | c4 (c4- | c4 B4) | c8 | z4 c4 | _e8 | d8- | %38
w: dost thou|sting|me, so|dead- ly|* dost|thou|* sting||me,|so|dead-|ly|
 d4 =f4- | f4 e4 | d8- | d8 | =B2!mf! d2 edef | g4 e4 | z2 d2 ^fefg | a2 A2 dcde | ^f4 g2 G2 | %47
w: * dost|* thou|sting||me, Mirth on- ly help can|bring me,|mirth on- ly help can|bring, mirth on- ly help can|bring me, mirth|
 dcde f4 | f4 z2 f2 | _edef g2 g2 | z2!f! d2 ^fefg | a4 d4 | %52
w: on- ly help can bring|me, mirth|on- ly help can bring me.|Fa la la * la~la|la la,|
[Q:1/4=118] z2[Q:1/4=114] d4[Q:1/4=110] d2 |[Q:1/4=108] =f2[Q:1/4=105] d2[Q:1/4=102] d4 | %54
w: fa la|la la la|
[Q:1/4=100] !fermata!=B8 |] %55
w: la.|
V:2
 z8 | z8 | z8 |!mf! G8 | ^F4 G4- | G4 ^F4 | G4 _E4 | F4 G4- | G4 F4- |[M:2/2] F4 _E4 | D8 | D8 | %12
w: |||O|Care, thou|* wilt|des- patch|me, thou|* wilt|* des-|patch|me,|
 z8 | z8 | z2 G2 =B3 c | d2 =B2 c4 | B2 c2 A4 | G4 F2 B2 | A8 | A4 z2"^cresc." A2 | =B3 c d2 B2 | %21
w: ||If mu- sic|do not match|thee, if mu-|sic do not|match|thee. Fa|la la la la|
 c4 G2 A2- | A2 G4 ^F2 | G8 |!f! B8 | A6 A2 | B4 G4 | G4 G4- | G4 F4 | G8 | G8 | _A8 | G8 | F8 | %34
w: la la la|* la la|la.|So|dead- ly|dost thou|sting, so|* dead-|ly|dost|thou|sting,|so|
 !courtesy!=E4 F4 | G4 F4 | G8 | ^F4 G4- | G4 ^F4 | A4 G4 | ^F4 G4- | G4 ^F4 | G4 G4- | %43
w: dead- ly|dost thou|sting|me, so|* dead-|ly dost|thou sting|* me,|sting me,|
 G2!mf! D2 EDEF | (GA B2) A4 | z2 D2 ^FEFG | A2 A2 z2 B2 | BABc d2 D2 | FEFG A4 | G2 G2 GFGA | %50
w: * Mirth on- ly help can|bring * * me,|mirth on- ly help can|bring me, mirth|on- ly help can bring, mirth|on- ly help can bring|me, mirth on- ly help can|
 (G2 B2) A2!f! D2 | ^FEFG A2 A2 | DCDE ^FEFG | A2 G4 ^F2 | !fermata!G8 |] %55
w: bring * me. Fa|la la la la la, fa|la la la la la la la la|la la la|la.|
V:3
!mf! D8- | D4 _E4- | E4 D4 | D4 C4 | D8 | D8 | z4 C4 | D6 (GF) | _E4 C4- |[M:2/2] C4 z4 | z4 G4- | %11
w: O|* Care,|* thou|wilt des-|patch|me,|thou|wilt des\- *|patch me,||thou|
 G4 F4- | F4 _E4 | D4 D2 D2 | _E3 F G2 E2 | D2 G2 G4- | G2 G4 ^F2 | G4 z2 (G2- | %18
w: * wilt|* des-|patch me, If|mu- sic do not|match thee, do|* not match|thee, match|
 G2 F2) E2"^cresc." E2 | ^F3 G A2 F2 | G2 D4 D2 | C6 E2 | A,2 D2 D4 | D8 |!f! G8 | ^F6 F2 | %26
w: * * thee. Fa|la la la la|la la la|la la|la la la|la.|So|dead- ly|
 G4 _E4 | D8 | z4 C4 | _E8 | D4 G4- | G4 F4- | F4 E4 | F8 | G4 F4 | E4 C4- | C4 G,4 | D8- | D8 | %39
w: dost thou|sting,|so|dead-|ly dost|* thou|* sting|me,|dost thou|sting me,|* so|dead\-||
 A,8 | D4 B,4 | (A,4 D4) | D2!mf! =B,2 CB,CD | (EF G2) G4 | z4 z2 D2 | ^FEFG A2 D2 | D6 G2 | F8 | %48
w: ly|dost thou|sting *|me, Mirth on- ly help can|bring * * me,|mirth|on- ly help can bring me,|can bring|me,|
 z2 D2 CB,CD | (_E2 C2) B,2 E2 | (D2 G,2) A,4 | z4 z2!f! A,2 | B,A,B,C D4- | D4 D4 | !fermata!D8 |] %55
w: mirth on- ly help can|bring * me, can|bring * me.|Fa|la la la la la|* la|la.|
V:4
 z8 |!mf! B8 | A8 | B4 c4- | c4 B4 | A8 | =B4 c4- | c4 G4 | _A8 |[M:2/2][K:treble-8] G8 | ^F4 G4 | %11
w: |O|Care,|thou wilt|* des-|patch|me, O,|* O|Care,|thou|wilt des-|
 A4 d4- | d4 c4- | c4 =B4 | c4 G4 | z2 G2 c3 d | _e2 c2 d4 | =B2 d2 d2 d2 | ^c2 d4 c2 | %19
w: patch, thou|* wilt|* des-|patch me,|If mu- sic|do not match|thee, if mu- sic|do not match|
 d6"^cresc." A2 | G3 A =B2 G2 | G4 G2 c2- | c2 B2 A4 | G8- | G8 | z8 | z4!f! c4- | c4 =B4 | c8 | %29
w: thee. Fa|la la la la|la la, fa|* la la|la.|||So|* dead-|ly,|
 z8 | d8 | c8- | c4 c4 | (F4 B4- | B4) _A4 | G4 _A4 | G4 c4- | c4 B4 | A8- | A4 E4 | A4 D2 d2- | %41
w: |so|dead\-|* ly|dost *|* sting|me, so|dead- ly|* dost|thou|* sting|me, dost thou|
 d2 (c2 A4) | G4 z4 | z2!mf! =B2 cd c2- | c2 (Bc) d4- | d4 A4 | z2 A2 BABc | d4 B4 | z2 B2 AGAB | %49
w: * sting *|me,|Mirth on- ly help|* can * bring|* me,|mirth on- ly help can|bring me,|mirth on- ly help can|
 c2 c2 z2!f! G2 | BABc d2 A2 | dcde ^f2 f2 | z2 d2 AGAB | F2 B2 A4 | !fermata!G8 |] %55
w: bring me. Fa|la la la la la, fa|la la la la la la,|fa la la la la|la la la|la.|
V:5
 z8 |!mf! G,8 | ^F,6 F,2 | G,4 _E,4 | D,8- | D,8 | G,4 C,4- | C,4 =B,,4 | C,8- |[M:2/2] C,8 | %10
w: |O|Care, thou|wilt des-|patch||me, O|* Care,|thou||
 D,8- | D,8 | =B,,4 C,4 | G,8 | z8 | z8 | z4 z2 D,2 | G,3 A, B,2 G,2 | A,4 A,2"^cresc." A,,2 | %19
w: wilt||des- patch|me,|||If|mu- sic do not|match thee. Fa|
 D,3 E, ^F,2 D,2 | G,4 z2 G,,2 | C,3 D, E,2 C,2 | D,8 | G,,8 | z8 | z8 | z8 |!f! G,8 | _A,8 | %29
w: la la la la|la, fa|la la la la|la|la.||||So|dead-|
 G,8- | G,8 | z8 | C,8 | _D,8 | C,8- | C,8 | C,8 | D,8- | D,8 | ^C,8 | D,8- | D,8 | z8 | %43
w: ly,|||so|dead-|ly||dost|thou||sting|me,|||
 z2!mf! G,2 C,=B,,C,D, | (E,F, G,2) D,4- | D,8 | z2 D,2 G,F,G,A, | B,4 B,2 B,,2 | D,C,D,E, F,4 | %49
w: Mirth on- ly help can|bring * * me,||mirth on- ly help can|bring me, mirth|on- ly help can bring|
 C,2!f! C,2 _E,D,E,F, | G,4 D,4 | D,8 | D,8- | D,8 | !fermata!G,8 |] %55
w: me. Fa la la la la|la la|la|la||la.|

